X:2787
T:I'd be a butterfly
O:england
M:6/8
L:1/8
S:Armitt MS
N:'DC' is written on the stave after the double bar
K:G major
B3 {d} cBc|d3B2G|g3gfe|d3{d}cBc|B3{d}cBc|d3 efg|d2 B cBA|G3G3||G|A3A2A|B
2AA2z|A3A2A|B2AA2z|A3A2A|B2AA2A|B2B^c2c|d3dc"DC"B||
